X: 258
U:~=!turn!
U:n=!diminuendo(!
U:p=!diminuendo)!
M:C
L:1/8
K:D
g | nfdepc dAGF | E/2E/2E !p!(BA) BEEg | nfcepc dBAF | D/2D/2D (AF) AD-D.g |
fdec dAGF | E/2E/2E (BA) BE-E.g | Lfa Lgb Laf Lge | nfdec dBpA !D.C.! |]


